X:1
T:Title
%%score [ ( 1 2 ) ( 3 4 ) ] { ( 5 6 ) | ( 7 8 ) }
L:1/8
Q:1/4=120
M:4/4
K:D
V:1 treble nm="Midi_74"
V:2 treble 
V:3 bass nm="Midi_74"
V:4 bass 
V:5 treble nm="Org."
V:6 treble 
V:7 bass 
V:8 bass 
V:1
 D8 | A4 (G2 F2) |{F} E8 || D8 | B4 A4 | d4 (F2 ^G2) | A8 || =G8 | d4 (c2 B2) |{B} A8 || A8 | %11
 G4 F4 |"^John Camidge\n(1790-1859)" B4 E4 | D8 |] %14
V:2
 D8 | C4 D4 | C8 || D8 | D4 C4 | D4 D4 | C8 || D8 | D4 G4 |{G} F8 || E8 | D4 D4 | D4 C4 | D8 |] %14
V:3
 A,8 | A,4 A,4 | G,8 || F,8 | G,4 G,4 |{F,} A,4 (B,2 E,2) | E,8 || G,8 | G,4 A,4 | A,8 || A,8 | %11
 B,4 A,4 | G,4 G,4 | F,8 |] %14
V:4
 F,8 | E,4 D,4 | A,,8 || D,8 | D,4 E,4 | F,4 B,,4 | A,,8 || B,,8 | B,,4 C,4 | D,8 || C,8 | %11
 B,,4 A,,4 | G,,4 A,,4 | D,8 |] %14
V:5
 D8 | A4 G2 F2 |{F} E8 || D8 | B4 A4 | d4 F2 ^G2 | A8 || =G8 | d4 c2 B2 |{[GB]} A8 || A8 | G4 F4 | %12
 B4 E4 | D8 |] %14
V:6
 D8 | [A,C]4 [A,D]4 | C8 || D8 | [B,DG]4 [CG]4 | [DFA]4 D4 | [CE]8 || D8 | [DG]4 [EG]4 | F8 || E8 | %11
 D4 D4 | [B,D]4 [G,A,C]4 | D8 |] %14
V:7
 x8 | x8 |"^8 vi" x8 || x8 | x8 | x8 | x8 || x8 | x8 | x8 || x8 | x8 | x8 | [D,,F,A,]8 |] %14
V:8
 [F,,F,A,]8 | [E,,E,]4 [D,,D,]4 | [A,,G,A,]8 || [D,F,A,]8 | D,4 E,4 | F,4 [B,,B,]4 | [A,,A,]8 || %7
 [B,,B,]8 | [B,,B,]4 [C,C]4 | [D,D]8 || [C,C]8 | [B,,B,]4 [A,,A,]4 | [G,,G,]4"^8" A,,4 | D,8 |] %14

